material/.icons/material/file-undo.svg

<svg xmlns="http://www.w3.org/2000/svg" viewBox="0 0 24 24"><path d="M13 9h5.5L13 3.5V9M6 2h8l6 6v12a2 2 0 01-2 2H6a2 2 0 01-2-2V4c0-1.11.89-2 2-2m6.16 12.31c-1.56 0-2.97.58-4.05 1.52L6 13.72V19h5.28l-2.13-2.12c.82-.68 1.85-1.1 3.01-1.1 2.07 0 3.84 1.35 4.45 3.22l1.39-.46c-.81-2.45-3.12-4.23-5.84-4.23z"/></svg>

<?xml version="1.0" encoding="UTF-8"?><!DOCTYPE svg PUBLIC "-//W3C//DTD SVG 1.1//EN" "http://www.w3.org/Graphics/SVG/1.1/DTD/svg11.dtd"><svg xmlns="http://www.w3.org/2000/svg" xmlns:xlink="http://www.w3.org/1999/xlink" version="1.1" id="mdi-file-undo" width="24" height="24" viewBox="0 0 24 24"><path d="M13,9H18.5L13,3.5V9M6,2H14L20,8V20A2,2 0 0,1 18,22H6C4.89,22 4,21.1 4,20V4C4,2.89 4.89,2 6,2M12.16,14.31C10.6,14.31 9.19,14.89 8.11,15.83L6,13.72V19H11.28L9.15,16.88C9.97,16.2 11,15.78 12.16,15.78C14.23,15.78 16,17.13 16.61,19L18,18.54C17.19,16.09 14.88,14.31 12.16,14.31Z" /></svg>
